packages/components/src/telekom/icons/home/light-bulb/selected.svg

<?xml version="1.0" encoding="UTF-8"?>
<svg width="24px" height="24px" viewBox="0 0 24 24" version="1.1" xmlns="http://www.w3.org/2000/svg" xmlns:xlink="http://www.w3.org/1999/xlink">
    <title>/svg/icon/home/light-bulb/selected</title>
    <g id="icon/home/light-bulb/selected" stroke="none" stroke-width="1" fill="none" fill-rule="evenodd">
        <path d="M15.5,19.006 L15.5,21.276 L13.966,21.833 C13.807,22.778 12.991,23.5 12,23.5 C11.0640556,23.5 10.2842068,22.8559938 10.0665007,21.9883496 L10.034,21.833 L8.5,21.276 L8.5,19.006 L15.5,19.006 Z M11.7475,5.505 C13.5305,5.437 15.2225,6.081 16.5075,7.316 C17.7925,8.553 18.5005,10.217 18.5005,12 C18.5005,12.922 18.3085,13.818 17.9425,14.639 C17.6408636,15.318 17.2841529,15.7937107 16.9375661,16.2135372 L16.5026653,16.734124 C16.4561033,16.791124 16.4103182,16.8482727 16.3655,16.906 C16.2721667,17.0266667 16.1837222,17.1531111 16.1010556,17.2847407 L15.9815,17.486 L8.0355,17.486 C7.9035,17.257 7.7535,17.043 7.5885,16.84 L7.08718912,16.2472208 C6.6978787,15.7821538 6.29234615,15.2407692 5.9635,14.419 C5.6475,13.631 5.4885,12.78 5.5005,11.904 C5.5495,8.505 8.3515,5.634 11.7475,5.505 Z M3.25,11.25 C3.664,11.25 4,11.585 4,12 C4,12.3795 3.71766667,12.6934583 3.35172569,12.7431493 L3.25,12.75 L1.25,12.75 C0.836,12.75 0.5,12.414 0.5,12 C0.5,11.6195833 0.782333333,11.3063889 1.14827431,11.2568316 L1.25,11.25 L3.25,11.25 Z M22.75,11.25 C23.164,11.25 23.5,11.585 23.5,12 C23.5,12.3795 23.2176667,12.6934583 22.8517257,12.7431493 L22.75,12.75 L20.75,12.75 C20.336,12.75 20,12.414 20,12 C20,11.6195833 20.2823333,11.3063889 20.6482743,11.2568316 L20.75,11.25 L22.75,11.25 Z M3.8685,3.868 C4.13486364,3.60254545 4.55081405,3.57841322 4.84437528,3.79560331 L4.9285,3.868 L6.3435,5.282 C6.6365,5.575 6.6365,6.05 6.3435,6.343 C6.1965,6.49 6.0045,6.563 5.8125,6.563 C5.6589,6.563 5.50594,6.51564 5.375636,6.421944 L5.2825,6.343 L3.8685,4.929 C3.5755,4.636 3.5755,4.161 3.8685,3.868 Z M19.072,3.8685 C19.365,3.5755 19.839,3.5755 20.132,3.8685 C20.3983636,4.13486364 20.4225785,4.55081405 20.2053959,4.8451266 L20.133,4.9295 L18.718,6.3435 C18.572,6.4895 18.38,6.5625 18.188,6.5625 C17.996,6.5625 17.804,6.4895 17.657,6.3435 C17.3906364,6.07713636 17.3664215,5.6603595 17.5843554,5.36664801 L17.657,5.2825 L19.072,3.8685 Z M12,0.5 C12.3795,0.5 12.6934583,0.781493056 12.7431493,1.14806424 L12.75,1.25 L12.75,3.25 C12.75,3.664 12.414,4 12,4 C11.6205,4 11.3065417,3.71766667 11.2568507,3.35172569 L11.25,3.25 L11.25,1.25 C11.25,0.835 11.586,0.5 12,0.5 Z" id="Icon" fill="#000000"></path>
    </g>
</svg>

<svg width="24" height="24" xmlns="http://www.w3.org/2000/svg"><path d="M15.5 19.006v2.27l-1.534.557A1.995 1.995 0 0112 23.5a1.994 1.994 0 01-1.933-1.512l-.033-.155-1.534-.557v-2.27h7zM11.748 5.505a6.46 6.46 0 014.76 1.811A6.448 6.448 0 0118.5 12a6.47 6.47 0 01-.558 2.639c-.301.679-.658 1.155-1.004 1.575l-.435.52a4.737 4.737 0 00-.402.55l-.12.202H8.037a4.914 4.914 0 00-.447-.646l-.502-.593c-.39-.465-.795-1.006-1.123-1.828a6.503 6.503 0 01-.464-2.515c.05-3.399 2.851-6.27 6.248-6.399zM3.25 11.25a.75.75 0 01.102 1.493l-.102.007h-2a.75.75 0 01-.102-1.493l.102-.007h2zm19.5 0a.75.75 0 01.102 1.493l-.102.007h-2a.75.75 0 01-.102-1.493l.102-.007h2zM3.869 3.868a.751.751 0 01.975-.072l.084.072 1.415 1.414a.75.75 0 01-.967 1.14l-.094-.079L3.87 4.929a.75.75 0 010-1.061zm15.203 0a.749.749 0 011.133.977l-.072.085-1.415 1.413a.751.751 0 01-1.134-.977l.073-.083 1.415-1.415zM12 .5a.75.75 0 01.743.648l.007.102v2a.75.75 0 01-1.493.102l-.007-.102v-2A.75.75 0 0112 .5z" fill="#000" fill-rule="evenodd"/></svg>
